X:178
T:Praise My Soul The King Of Heaven
%%stretchlast false
M:2/4
L:1/4
K:C clef=C1
"^I"[CEcg] [CEcg] | "^V7²"[DFBg] [DFBg] | "^I¹"[EGcc'] "^iii"[EGgb] | "^IV"[FAga] [FBfa] | "^I"[Cceg]2 | "^IV¹"[A,Fcf] "^I"[CGce] | "^IV"[F,Fca] "^V"[G,DBg] | "^vi"[A,Cce] "^ii"[D,Adf] | "^V"[G,GBd] "^V7"[G,FBd] | "^III¹"[^G,EBe] "^iii7¹"[G,B,de] | "^vi"[A,Cce] "^iii7²"[B,DBe] | "^vi¹"[CEAa] "^VI7¹"[^CAg] | "^vi"[DAcg] "^i°7¹"[^DAc^f] | "^iii"[EGBg] "^II7"[D^Fca] | "^V"[Gdb] "^I¹"[EGcc'] | "^vi¹"[CAce] "^II7"[DAc^f] | "^V"[G,GBg]2 | "^I¹"[EGcc'] "^Imaj7¹"[EGcb]/ [E,Gcb]/ | "^IV"[F,Fca] "^V7"[G,FBg] | "^vi"[A,Ecc'] "^vii7³"[A,Ddb]/ "^vi"[A,Ceb]/ | "^viiø7"[B,Dfa] "^V7¹"[B,Gfg] | "^vi¹"[Ccea] "^V²"[DBdg]/ "^iii7"[EBdg]/ | "^IV"[FAcf] "^ii¹"[F,FAd] | "^I²"[G,EGc] "^V"[G,DGB]/ "^V7"[G,FGB]/ | "^I"[CEGc]2 |]
